src/resources/svg/icons/arrow-circle-right.svg

<svg width="24" height="24" viewBox="0 0 24 24" xmlns="http://www.w3.org/2000/svg">
    <path fill="#AAAFB3"
          d="M23.625 12C23.625 5.57812 18.4219 0.375 12 0.375C5.57812 0.375 0.375 5.57812 0.375 12C0.375 18.4219 5.57812 23.625 12 23.625C18.4219 23.625 23.625 18.4219 23.625 12ZM2.625 12C2.625 6.82031 6.82031 2.625 12 2.625C17.1797 2.625 21.375 6.82031 21.375 12C21.375 17.1797 17.1797 21.375 12 21.375C6.82031 21.375 2.625 17.1797 2.625 12ZM6 12.9375V11.0625C6 10.7531 6.25313 10.5 6.5625 10.5H12V7.35938C12 6.85781 12.6047 6.60938 12.9609 6.96094L17.6016 11.6016C17.8219 11.8219 17.8219 12.1781 17.6016 12.3984L12.9609 17.0391C12.6047 17.3953 12 17.1422 12 16.6406V13.5H6.5625C6.25313 13.5 6 13.2469 6 12.9375Z"
    />
</svg>

<svg fill="none" viewBox="0 0 24 24" xmlns="http://www.w3.org/2000/svg">
    <path d="m23.625 12c0-6.4219-5.2031-11.625-11.625-11.625-6.4219 0-11.625 5.2031-11.625 11.625 0 6.4219 5.2031 11.625 11.625 11.625 6.4219 0 11.625-5.2031 11.625-11.625zm-21 0c0-5.1797 4.1953-9.375 9.375-9.375 5.1797 0 9.375 4.1953 9.375 9.375 0 5.1797-4.1953 9.375-9.375 9.375-5.1797 0-9.375-4.1953-9.375-9.375zm3.375 0.9375v-1.875c0-0.3094 0.25313-0.5625 0.5625-0.5625h5.4375v-3.1406c0-0.50157 0.6047-0.75 0.9609-0.39844l4.6407 4.6407c0.2203 0.2203 0.2203 0.5765 0 0.7968l-4.6407 4.6407c-0.3562 0.3562-0.9609 0.1031-0.9609-0.3985v-3.1406h-5.4375c-0.30937 0-0.5625-0.2531-0.5625-0.5625z" fill="currentColor"/>
</svg>
